static/assets/images/protocols/benqi-mono.svg

<svg width="327" height="327" viewBox="0 0 327 327" fill="none" xmlns="http://www.w3.org/2000/svg">
<path d="M163.544 260.703C163.43 260.703 163.324 260.703 163.211 260.703C149.474 260.699 135.892 257.798 123.352 252.189C110.812 246.581 99.5949 238.391 90.4339 228.155C54.5939 188.05 58.0865 126.278 98.187 90.4522C116.039 74.4786 139.154 65.649 163.109 65.6531C176.846 65.6564 190.428 68.557 202.969 74.1655C215.509 79.7739 226.725 87.9643 235.886 98.2017C259.983 125.173 266.269 161.946 255.634 194.037L299.462 252.917C339.233 192.611 335.243 110.87 284.833 54.4586C252.603 18.3809 207.953 -0.0035885 163.105 6.86383e-05C123.007 -0.0367595 84.3098 14.7478 54.4513 41.5123C-12.7451 101.548 -18.5417 204.69 41.483 271.89C73.7134 307.968 118.363 326.36 163.218 326.36C178.475 326.353 193.656 324.208 208.318 319.989C206.629 318.197 163.544 260.703 163.544 260.703Z" fill="black"/>
<path d="M324.133 326.02L237.828 210.063L235.831 207.375C235.326 206.753 234.694 206.018 234.002 205.243C232.436 203.488 230.775 201.819 229.029 200.243C228.253 199.541 227.424 198.827 226.542 198.1C226.096 197.735 225.635 197.369 225.159 197.003C224.684 196.637 224.209 196.272 223.733 195.906C222.746 195.174 221.702 194.443 220.603 193.712C210.71 187.129 196.363 181.109 177.083 181.109H134.47L134.623 181.318L134.47 181.435L222.771 300.105C223.272 300.727 223.909 301.462 224.6 302.241C226.167 303.995 227.828 305.664 229.574 307.24C230.349 307.939 231.179 308.656 232.06 309.38C232.507 309.745 232.967 310.111 233.443 310.477C233.918 310.843 234.392 311.208 234.865 311.574C235.858 312.305 236.902 313.037 238 313.768C247.874 320.329 262.236 326.367 281.52 326.367H324.133L323.979 326.159L324.133 326.02Z" fill="black"/>
</svg>

<svg xmlns="http://www.w3.org/2000/svg" fill="none" viewBox="0 0 327 327"><path fill="#000" d="M163.544 260.703h-.333a97.71 97.71 0 0 1-72.777-32.548c-35.84-40.105-32.347-101.877 7.753-137.703a97.34 97.34 0 0 1 64.922-24.799 97.7 97.7 0 0 1 72.777 32.549c24.097 26.971 30.383 63.744 19.748 95.835l43.828 58.88c39.771-60.306 35.781-142.047-14.629-198.458C252.603 18.38 207.953-.004 163.105 0A162.56 162.56 0 0 0 54.451 41.512C-12.745 101.548-18.542 204.69 41.483 271.89c32.23 36.078 76.88 54.47 121.735 54.47a163.4 163.4 0 0 0 45.1-6.371c-1.689-1.792-44.774-59.286-44.774-59.286"/><path fill="#000" d="m324.133 326.02-86.305-115.957-1.997-2.688a62 62 0 0 0-1.829-2.132 65 65 0 0 0-4.973-5 72 72 0 0 0-2.487-2.143 58 58 0 0 0-1.383-1.097l-1.426-1.097a75 75 0 0 0-3.13-2.194c-9.893-6.583-24.24-12.603-43.52-12.603H134.47l.153.209-.153.117 88.301 118.67a62 62 0 0 0 1.829 2.136 66 66 0 0 0 4.974 4.999 71 71 0 0 0 2.486 2.14q.67.548 1.383 1.097l1.422 1.097a81 81 0 0 0 3.135 2.194c9.874 6.561 24.236 12.599 43.52 12.599h42.613l-.154-.208z"/></svg>
